X: 34467
T: Ridee
R: three-two
M: 3/2
K: Bminor
|:Bffc f2 ef gfed|cBcd ef e2 cedc:|
|:BffB ffef gfed|cBcd efed cedc:|
|:B2 fB cd B2 gB cd|B2 AB cded cddc:|

